!!!COM: Palestrina, Giovanni Perluigi da
!!!OPR: Missa Ave Maria (1594)
!!!OMD: Gloria
!!!OTL: Cum Sancto Spiritu
**kern	**kern	**kern	**kern
*Ibass	*Itenor	*Icalto	*Icant
!Bassus	!Tenor	!Altus	!Cantus
*clefF4	*clefGv2	*clefG2	*clefG2
*k[]	*k[]	*k[]	*k[]
*A:aeo	*A:aeo	*A:aeo	*A:aeo
*M4/2	*M4/2	*M4/2	*M4/2
=109	=109	=109	=109
2A	1e	1a	1cc#
2A	.	.	.
2G	1e	1r	1r
2A	.	.	.
=110	=110	=110	=110
2F	2d	1r	0r
2G	2e	.	.
2A	2c	1a	.
4G	2d	.	.
4F	.	.	.
=111	=111	=111	=111
2E	1e	2g	2r
2A	.	2a	2ee
2d	1r	2f	2dd
2c	.	2g	2ee
=112	=112	=112	=112
2A	0r	2a	2cc
2B	.	4g	2dd
.	.	4f	.
2c	.	2e	2ee
4B	.	2g	4dd
4A	.	.	4cc
=113	=113	=113	=113
1G	1r	4g	4b
.	.	4f	4cc
.	.	4d	2.dd
.	.	4e	.
1A	2r	4f	.
.	.	4e	4cc
.	2e	[2a	4cc
.	.	.	8b
.	.	.	8a
=114	=114	=114	=114
0r	2d	2a]	1b
.	2e	2g	.
.	2c	2e	[1a
.	2d	2f	.
=115	=115	=115	=115
1A	1e	2.c	2a]
.	.	.	2cc
.	.	4d	.
2G	2r	1e	2b
2A	2e	.	2cc
=116	=116	=116	=116
2F	2d	0r	2dd
2G	2e	.	2b
2A	2c	.	1a
4G	2d	.	.
4F	.	.	.
=117	=117	=117	=117
2E	2e	2r	0r
2F	4d	2a	.
.	4c	.	.
2G	2B	2g	.
[2F	2c	2a	.
=118	=118	=118	=118
2F]	2d	2f	0r
2E	1c	2g	.
1D	.	2a	.
.	2B	4g	.
.	.	4f	.
=119	=119	=119	=119
2C	1c	2e	1ee
2c	.	1g	.
2B	1r	.	2dd
2c	.	2e	2ee
=120	=120	=120	=120
2A	1r	1f	2cc
2B	.	.	2dd
1c	2r	2e	2.ee
.	2e	2g	.
.	.	.	8dd
.	.	.	8cc
=121	=121	=121	=121
2G	2d	2g	2b
2E	2e	2g	1cc
1F	2c	1a	.
.	2d	.	2a
=122	=122	=122	=122
2C	2e	1g	2cc
1G	4d	.	4b
.	4c	.	4a
.	2B	2d	2.g
2E	[2e	[2g	.
.	.	.	4a
=123	=123	=123	=123
2G	4e]	4g]	2b
.	4d	4f	.
2.A	4c	4e	2.cc
.	4B	4d	.
.	2c	2e	.
4G	.	.	4b
4F	[2d	[2f	4a
4E	.	.	4g
=124	=124	=124	=124
4D	4d]	4f]	4f
4E	4c	4e	4g
2F	2A	2d	1a
1E	1B	1e	.
.	.	.	2g#
=125	=125	=125	=125
0A	0A	0c#	0a
==	==	==	==
*-	*-	*-	*-
!!!CDT: 1525/^1526/-1594/2/2
!!!OCY: Italia
!!!AGN: Mass (Paraphrase)
!!!AST: renaissance, vocal
!!!ASW: Prayer
!!!PWK: Masses, Book 7
!!!RNB: Cadence finals: D
!!!YOR: Le Opere Complete, v. 23, p. 1
!!!YOO: Rome, Italy: Fratelli Scalera
!!!END: 1992//
!!!EED: John Miller
!!!YEC: Copyright 2000, John Miller
!!!YEN: United States of America
!!!YEM: Rights to all derivative electronic formats reserved.
!!!YEM: Refer to licensing agreement for further details.
!!!YEM: This file must be accompanied by the licensing agreement.
!!!YEM: A copy of the licensing agreement may be found at http://www.music-cog.ohio-state.edu/HumdrumDatabases/Palestrina/license.txt
!!!EMD: converted to Humdrum by Bret Aarden
